dist/svg/icon-nyc-logo.svg

<svg xmlns="http://www.w3.org/2000/svg" viewBox="441.01 310 392.626 130.909"><path fill="#FFF" d="M809.091 310h-81.818l-24.546 24.545v81.819l24.546 24.545h81.818l24.545-24.545v-24.546l-8.181-8.182h-40.91v8.182h-32.727v-32.727h32.727v8.081h40.91l8.181-8.081v-24.546zM563.737 310H531.01l-8.182 8.182v32.727L481.919 310h-32.727l-8.182 8.182v114.545l8.182 8.182h32.727l8.182-8.182V400l40.909 40.909h32.727l8.182-8.182V318.182zM621.01 440.909h32.626l8.182-8.182v-24.545l40.909-40.909v-49.091L694.545 310h-32.727l-8.182 8.182v16.363l-16.363 16.364-16.263-16.364v-16.363L612.828 310h-32.727l-8.182 8.182v49.091l40.909 40.909v24.545z"/></svg>

<svg xmlns="http://www.w3.org/2000/svg" viewBox="441.01 310 392.626 130.909"><path fill="#FFF" d="M809.091 310L727.273 310 702.727 334.545 702.727 416.364 727.273 440.909 809.091 440.909 833.636 416.364 833.636 391.818 825.455 383.636 784.545 383.636 784.545 391.818 751.818 391.818 751.818 359.091 784.545 359.091 784.545 367.172 825.455 367.172 833.636 359.091 833.636 334.545zM563.737 310L531.01 310 522.828 318.182 522.828 350.909 481.919 310 449.192 310 441.01 318.182 441.01 432.727 449.192 440.909 481.919 440.909 490.101 432.727 490.101 400 531.01 440.909 531.01 440.909 563.737 440.909 571.919 432.727 571.919 318.182zM621.01 440.909L653.636 440.909 661.818 432.727 661.818 408.182 702.727 367.273 702.727 318.182 694.545 310 661.818 310 653.636 318.182 653.636 334.545 637.273 350.909 621.01 334.545 621.01 334.545 621.01 318.182 612.828 310 580.101 310 571.919 318.182 571.919 367.273 612.828 408.182 612.828 432.727z"/></svg>
